src/assets/images/icons/function-line.svg

<svg xmlns="http://www.w3.org/2000/svg" width="24" height="24" fill="none" viewBox="0 0 24 24"><g clip-path="url(#a)"><path fill="#181d27" d="M3 3h8v8H3zm0 10h8v8H3zM13 3h8v8h-8zm0 10h8v8h-8zm2-8v4h4V5zm0 10v4h4v-4zM5 5v4h4V5zm0 10v4h4v-4z"/></g><defs><clipPath id="a"><path fill="#fff" d="M0 0h24v24H0z"/></clipPath></defs></svg>

<svg width="24" height="24" viewBox="0 0 24 24" fill="none" xmlns="http://www.w3.org/2000/svg">
<g clip-path="url(#clip0_58_16796)">
<path d="M3 3H11V11H3V3ZM3 13H11V21H3V13ZM13 3H21V11H13V3ZM13 13H21V21H13V13ZM15 5V9H19V5H15ZM15 15V19H19V15H15ZM5 5V9H9V5H5ZM5 15V19H9V15H5Z" fill="#181D27"/>
</g>
<defs>
<clipPath id="clip0_58_16796">
<rect width="24" height="24" fill="white"/>
</clipPath>
</defs>
</svg>
